; generated by Slic3r 0.9.9 on 2013-06-07 at 20:18:15

; layer_height = 0.3
; perimeters = 3
; top_solid_layers = 3
; bottom_solid_layers = 3
; fill_density = 0.2
; perimeter_speed = 80
; infill_speed = 80
; travel_speed = 250
; nozzle_diameter = 0.35
; filament_diameter = 1.75
; extrusion_multiplier = 1
; perimeters extrusion width = 0.37mm
; infill extrusion width = 0.37mm
; solid infill extrusion width = 0.37mm
; top infill extrusion width = 0.37mm
; first layer extrusion width = 0.70mm

G21 ; set units to millimeters
M107
M190 S60 ; wait for bed temperature to be reached
M104 S205 ; set temperature
G28 ; home all axes
G1 Z5 F5000 ; lift nozzle
M109 S205 ; wait for temperature to be reached
G90 ; use absolute coordinates
G92 E0
M82 ; use absolute distances for extrusion
G1 F1800.000 E-2.00000
G92 E0
G1 Z0.350 F15000.000
G1 X81.550 Y95.850
G1 F1800.000 E2.00000
G1 X82.090 Y95.400 F1440.000 E2.06392
G1 X82.710 Y94.970 E2.13252
G1 X83.690 Y94.400 E2.23561
G1 X84.160 Y94.180 E2.28280
G1 X85.180 Y93.800 E2.38178
G1 X85.680 Y93.660 E2.42899
G1 X86.450 Y93.490 E2.50069
G1 X87.480 Y93.390 E2.59479
G1 X131.990 Y93.380 E6.64206
G1 X132.490 Y93.390 E6.68754
G1 X133.020 Y93.430 E6.73587
G1 X133.540 Y93.490 E6.78346
G1 X134.050 Y93.590 E6.83072
G1 X134.810 Y93.800 E6.90242
G1 X135.780 Y94.160 E6.99650
G1 X136.490 Y94.490 E7.06769
G1 X136.930 Y94.730 E7.11326
G1 X137.770 Y95.310 E7.20608
G1 X138.600 Y96.020 E7.30540
G1 X138.970 Y96.390 E7.35298
G1 X139.680 Y97.220 E7.45230
G1 X140.260 Y98.060 E7.54512
G1 X140.500 Y98.500 E7.59069
G1 X140.830 Y99.210 E7.66188
G1 X141.190 Y100.180 E7.75597
G1 X141.440 Y101.140 E7.84617
G1 X141.520 Y101.600 E7.88862
G1 X141.590 Y102.360 E7.95802
G1 X141.620 Y102.990 E8.01537
G1 X141.620 Y116.990 E9.28839
G1 X141.600 Y117.550 E9.33934
G1 X141.560 Y118.020 E9.38223
G1 X141.400 Y119.000 E9.47252
G1 X141.290 Y119.460 E9.51553
G1 X140.940 Y120.530 E9.61790
G1 X140.760 Y120.950 E9.65945
G1 X140.360 Y121.730 E9.73916
G1 X140.110 Y122.150 E9.78360
G1 X139.510 Y123.000 E9.87821
G1 X138.890 Y123.720 E9.96460
G1 X138.360 Y124.210 E10.03024
G1 X138.000 Y124.510 E10.07285
G1 X137.270 Y125.040 E10.15488
G1 X136.870 Y125.290 E10.19777
G1 X135.870 Y125.800 E10.29984
G1 X135.430 Y125.980 E10.34307
G1 X134.390 Y126.310 E10.44228
G1 X133.950 Y126.410 E10.48331
G1 X133.150 Y126.540 E10.55701
G1 X132.660 Y126.590 E10.60179
G1 X131.990 Y126.620 E10.66278
G1 X87.990 Y126.620 E14.66368
G1 X87.420 Y126.600 E14.71554
G1 X86.960 Y126.560 E14.75753
G1 X85.990 Y126.400 E14.84692
G1 X85.530 Y126.290 E14.88993
G1 X84.560 Y125.980 E14.98252
G1 X84.120 Y125.800 E15.02575
G1 X83.120 Y125.290 E15.12782
G1 X82.720 Y125.040 E15.17071
G1 X81.990 Y124.510 E15.25274
G1 X81.270 Y123.890 E15.33914
G1 X80.780 Y123.360 E15.40477
G1 X80.480 Y123.000 E15.44738
G1 X79.950 Y122.270 E15.52941
G1 X79.700 Y121.870 E15.57230
G1 X79.470 Y121.470 E15.61426
G1 X79.180 Y120.850 E15.67650
G1 X79.010 Y120.430 E15.71770
G1 X78.720 Y119.550 E15.80195
G1 X78.500 Y118.600 E15.89062
G1 X78.440 Y118.120 E15.93461
G1 X78.380 Y116.990 E16.03750
G1 X78.380 Y102.990 E17.31051
G1 X78.390 Y102.480 E17.35690
G1 X78.490 Y101.450 E17.45100
G1 X78.660 Y100.680 E17.52270
G1 X78.800 Y100.180 E17.56991
G1 X79.160 Y99.210 E17.66399
G1 X79.490 Y98.500 E17.73518
G1 X79.730 Y98.060 E17.78076
G1 X80.310 Y97.220 E17.87358
G1 X81.020 Y96.390 E17.97289
G1 X81.486 Y95.918 E18.03317
G1 F1800.000 E16.03317
G92 E0
G1 X118.358 Y107.153 F15000.000
G1 F1800.000 E2.00000
G1 X118.879 Y106.037 F1440.000 E2.11203
G1 X119.585 Y105.028 E2.22406
G1 X120.457 Y104.156 E2.33609
G1 X121.466 Y103.450 E2.44812
G1 X122.583 Y102.929 E2.56016
G1 X123.773 Y102.610 E2.67219
G1 X125.000 Y102.503 E2.78422
G1 X126.227 Y102.610 E2.89625
G1 X127.417 Y102.929 E3.00828
G1 X128.534 Y103.450 E3.12032
G1 X129.543 Y104.156 E3.23234
G1 X129.664 Y104.277 E3.24782
G1 X130.415 Y105.028 E3.34438
G1 X131.121 Y106.037 E3.45641
G1 X131.642 Y107.153 E3.56844
G1 X131.961 Y108.343 E3.68046
G1 X132.068 Y109.571 E3.79250
G1 X131.961 Y110.798 E3.90453
G1 X131.642 Y111.988 E4.01657
G1 X131.121 Y113.105 E4.12860
G1 X130.415 Y114.114 E4.24063
G1 X129.543 Y114.985 E4.35266
G1 X128.534 Y115.692 E4.46469
G1 X127.417 Y116.213 E4.57672
G1 X126.227 Y116.532 E4.68875
G1 X125.000 Y116.639 E4.80078
G1 X124.830 Y116.624 E4.81626
G1 X123.773 Y116.532 E4.91281
G1 X122.583 Y116.213 E5.02484
G1 X121.466 Y115.692 E5.13688
G1 X120.457 Y114.985 E5.24891
G1 X119.585 Y114.114 E5.36094
G1 X118.879 Y113.105 E5.47297
G1 X118.358 Y111.988 E5.58499
G1 X118.039 Y110.798 E5.69703
G1 X117.932 Y109.571 E5.80906
G1 X118.039 Y108.344 E5.92109
G1 X118.334 Y107.244 E6.02460
G1 X118.948 Y107.368 F15000.000
G1 X119.422 Y106.350 F540.000 E6.12669
G1 X120.066 Y105.431 E6.22878
G1 X120.860 Y104.637 E6.33087
G1 X120.954 Y104.571 E6.34138
G1 X121.780 Y103.993 E6.43296
G1 X122.797 Y103.518 E6.53505
G1 X123.882 Y103.228 E6.63714
G1 X125.000 Y103.130 E6.73922
G1 X126.118 Y103.228 E6.84131
G1 X127.203 Y103.518 E6.94340
G1 X128.220 Y103.993 E7.04549
G1 X129.140 Y104.637 E7.14758
G1 X129.222 Y104.719 E7.15809
G1 X129.934 Y105.431 E7.24967
G1 X130.578 Y106.350 E7.35176
G1 X131.052 Y107.368 E7.45385
G1 X131.343 Y108.452 E7.55593
G1 X131.441 Y109.571 E7.65803
G1 X131.343 Y110.689 E7.76011
G1 X131.052 Y111.774 E7.86221
G1 X130.578 Y112.791 E7.96430
G1 X129.934 Y113.711 E8.06638
G1 X129.140 Y114.505 E8.16847
G1 X128.220 Y115.149 E8.27056
G1 X127.203 Y115.623 E8.37265
G1 X126.118 Y115.914 E8.47474
G1 X125.000 Y116.012 E8.57683
G1 X124.885 Y116.002 E8.58733
G1 X123.882 Y115.914 E8.67891
G1 X122.797 Y115.623 E8.78100
G1 X121.780 Y115.149 E8.88309
G1 X120.860 Y114.505 E8.98518
G1 X120.066 Y113.711 E9.08727
G1 X119.422 Y112.791 E9.18936
G1 X118.948 Y111.774 E9.29144
G1 X118.657 Y110.689 E9.39354
G1 X118.559 Y109.571 E9.49563
G1 X118.657 Y108.453 E9.59771
G1 X118.923 Y107.459 E9.69128
G1 X119.537 Y107.583 F15000.000
G1 X119.965 Y106.664 F540.000 E9.78343
G1 X120.546 Y105.834 E9.87558
G1 X121.313 Y105.083 E9.97318
G1 X122.093 Y104.536 E10.05979
G1 X123.012 Y104.108 E10.15194
G1 X123.990 Y103.846 E10.24408
G1 X125.000 Y103.757 E10.33623
G1 X126.010 Y103.846 E10.42838
G1 X126.988 Y104.108 E10.52052
G1 X127.907 Y104.536 E10.61267
G1 X128.780 Y105.160 E10.71027
G1 X129.454 Y105.834 E10.79688
G1 X130.035 Y106.664 E10.88903
G1 X130.463 Y107.583 E10.98118
G1 X130.725 Y108.561 E11.07332
G1 X130.814 Y109.571 E11.16547
G1 X130.725 Y110.580 E11.25761
G1 X130.463 Y111.559 E11.34976
G1 X130.035 Y112.478 E11.44191
G1 X129.453 Y113.308 E11.53406
G1 X128.737 Y114.024 E11.62620
G1 X127.907 Y114.606 E11.71835
G1 X126.988 Y115.034 E11.81050
G1 X126.010 Y115.296 E11.90264
G1 X124.939 Y115.379 E12.00024
G1 X123.990 Y115.296 E12.08685
G1 X123.012 Y115.034 E12.17900
G1 X122.093 Y114.606 E12.27115
G1 X121.263 Y114.024 E12.36329
G1 X120.546 Y113.308 E12.45544
G1 X119.965 Y112.478 E12.54759
G1 X119.537 Y111.559 E12.63973
G1 X119.275 Y110.580 E12.73188
G1 X119.186 Y109.571 E12.82403
G1 X119.275 Y108.561 E12.91617
G1 X119.513 Y107.673 E12.99980
G1 X119.149 Y107.092 F15000.000
G1 X116.918 Y107.234
G1 X117.203 Y108.300 F1440.000 E13.10017
G1 X117.315 Y109.571 E13.21616
G1 X117.203 Y110.842 E13.33216
G1 X116.873 Y112.074 E13.44815
G1 X116.334 Y113.230 E13.56415
G1 X115.602 Y114.275 E13.68014
G1 X114.700 Y115.177 E13.79614
G1 X113.655 Y115.909 E13.91213
G1 X112.499 Y116.448 E14.02812
G1 X111.267 Y116.778 E14.14412
G1 X109.996 Y116.889 E14.26011
G1 X108.726 Y116.778 E14.37611
G1 X107.493 Y116.448 E14.49210
G1 X106.337 Y115.909 E14.60809
G1 X105.292 Y115.177 E14.72408
G1 X104.390 Y114.275 E14.84008
G1 X103.659 Y113.230 E14.95607
G1 X103.119 Y112.074 E15.07207
G1 X102.758 Y110.724 E15.19915
G1 X102.526 Y110.724 E15.22018
G1 X102.112 Y112.272 E15.36587
G1 X101.554 Y113.467 E15.48583
G1 X100.798 Y114.548 E15.60578
G1 X99.865 Y115.481 E15.72574
G1 X98.784 Y116.237 E15.84570
G1 X97.588 Y116.795 E15.96565
G1 X96.314 Y117.136 E16.08561
G1 X95.000 Y117.251 E16.20556
G1 X93.686 Y117.136 E16.32552
G1 X92.412 Y116.795 E16.44547
G1 X92.254 Y116.722 E16.46123
G1 X91.216 Y116.237 E16.56543
G1 X90.135 Y115.481 E16.68539
G1 X89.202 Y114.548 E16.80535
G1 X88.446 Y113.467 E16.92530
G1 X87.888 Y112.272 E17.04526
G1 X87.547 Y110.997 E17.16521
G1 X87.432 Y109.683 E17.28517
G1 X87.547 Y108.369 E17.40513
G1 X87.888 Y107.095 E17.52508
G1 X88.446 Y105.899 E17.64504
G1 X88.545 Y105.757 E17.66080
G1 X89.202 Y104.818 E17.76500
G1 X90.135 Y103.885 E17.88495
G1 X91.216 Y103.129 E18.00491
G1 X92.412 Y102.571 E18.12487
G1 X93.686 Y102.230 E18.24482
G1 X95.000 Y102.115 E18.36478
G1 X96.314 Y102.230 E18.48473
G1 X97.588 Y102.571 E18.60469
G1 X98.784 Y103.129 E18.72465
G1 X99.865 Y103.885 E18.84460
G1 X100.798 Y104.818 E18.96456
G1 X101.554 Y105.899 E19.08452
G1 X102.112 Y107.095 E19.20447
G1 X102.496 Y108.530 E19.33960
G1 X102.728 Y108.530 E19.36063
G1 X103.119 Y107.068 E19.49827
G1 X103.659 Y105.912 E19.61427
G1 X104.390 Y104.867 E19.73026
G1 X105.292 Y103.965 E19.84626
G1 X106.337 Y103.233 E19.96225
G1 X106.493 Y103.161 E19.97786
G1 X107.493 Y102.694 E20.07824
G1 X108.726 Y102.364 E20.19424
G1 X109.996 Y102.253 E20.31023
G1 X111.267 Y102.364 E20.42622
G1 X112.499 Y102.694 E20.54221
G1 X113.655 Y103.233 E20.65821
G1 X114.700 Y103.965 E20.77420
G1 X115.602 Y104.867 E20.89020
G1 X116.334 Y105.912 E21.00619
G1 X116.873 Y107.068 E21.12219
G1 X116.893 Y107.143 E21.12928
G1 X116.284 Y107.283 F15000.000
G1 X116.586 Y108.409 F1440.000 E21.23533
G1 X116.687 Y109.571 E21.34138
G1 X116.677 Y109.688 E21.35203
G1 X116.586 Y110.733 E21.44744
G1 X116.284 Y111.859 E21.55349
G1 X115.791 Y112.916 E21.65954
G1 X115.122 Y113.872 E21.76559
G1 X114.297 Y114.696 E21.87164
G1 X113.342 Y115.365 E21.97769
G1 X112.285 Y115.858 E22.08375
G1 X111.158 Y116.160 E22.18980
G1 X109.996 Y116.262 E22.29585
G1 X108.834 Y116.160 E22.40190
G1 X107.708 Y115.858 E22.50795
G1 X106.651 Y115.365 E22.61400
G1 X105.695 Y114.696 E22.72005
G1 X104.871 Y113.872 E22.82611
G1 X104.202 Y112.916 E22.93216
G1 X103.709 Y111.859 E23.03821
G1 X103.407 Y110.733 E23.14426
G1 X103.305 Y109.571 E23.25031
G1 X103.407 Y108.409 E23.35636
G1 X103.709 Y107.282 E23.46242
G1 X104.202 Y106.225 E23.56847
G1 X104.871 Y105.270 E23.67452
G1 X105.695 Y104.445 E23.78057
G1 X106.651 Y103.776 E23.88662
G1 X107.708 Y103.284 E23.99267
G1 X108.834 Y102.982 E24.09872
G1 X109.996 Y102.880 E24.20477
G1 X111.158 Y102.982 E24.31082
G1 X112.285 Y103.284 E24.41688
G1 X113.342 Y103.776 E24.52293
G1 X114.297 Y104.445 E24.62898
G1 X115.122 Y105.270 E24.73503
G1 X115.791 Y106.225 E24.84108
G1 X116.244 Y107.198 E24.93861
G1 X115.694 Y107.497 F15000.000
G1 X115.968 Y108.518 F540.000 E25.03472
G1 X116.055 Y109.633 E25.13642
G1 X115.968 Y110.624 E25.22686
G1 X115.694 Y111.645 E25.32297
G1 X115.248 Y112.603 E25.41908
G1 X114.641 Y113.469 E25.51519
G1 X113.894 Y114.216 E25.61129
G1 X113.028 Y114.822 E25.70740
G1 X112.070 Y115.269 E25.80351
G1 X111.049 Y115.542 E25.89962
G1 X109.996 Y115.635 E25.99573
G1 X108.943 Y115.542 E26.09184
G1 X107.922 Y115.269 E26.18795
G1 X106.964 Y114.822 E26.28406
G1 X106.099 Y114.216 E26.38017
G1 X105.351 Y113.469 E26.47628
G1 X104.745 Y112.603 E26.57239
G1 X104.298 Y111.645 E26.66850
G1 X104.025 Y110.624 E26.76460
G1 X103.938 Y109.509 E26.86631
G1 X104.025 Y108.518 E26.95674
G1 X104.298 Y107.497 E27.05285
G1 X104.745 Y106.539 E27.14896
G1 X105.351 Y105.673 E27.24507
G1 X106.099 Y104.926 E27.34118
G1 X106.964 Y104.320 E27.43729
G1 X107.922 Y103.873 E27.53340
G1 X108.943 Y103.599 E27.62950
G1 X109.996 Y103.507 E27.72561
G1 X111.049 Y103.599 E27.82172
G1 X112.070 Y103.873 E27.91783
G1 X113.028 Y104.320 E28.01394
G1 X113.894 Y104.926 E28.11005
G1 X114.641 Y105.673 E28.20616
G1 X115.248 Y106.539 E28.30227
G1 X115.655 Y107.412 E28.38985
G1 X116.306 Y107.623 F15000.000
G1 X116.278 Y109.571
G1 X120.388 Y105.670
G1 X109.997 Y103.303
G1 X106.918 Y104.122
G1 X105.168 Y105.577
G1 X101.508 Y109.684
G1 X101.846 Y108.596
G1 X101.941 Y109.683 F1440.000 E28.48908
G1 X101.835 Y110.888 E28.59910
G1 X101.522 Y112.057 E28.70911
G1 X101.011 Y113.154 E28.81913
G1 X100.317 Y114.145 E28.92914
G1 X99.462 Y115.000 E29.03915
G1 X98.470 Y115.694 E29.14917
G1 X97.374 Y116.205 E29.25918
G1 X96.205 Y116.519 E29.36919
G1 X95.000 Y116.624 E29.47921
G1 X93.795 Y116.519 E29.58922
G1 X92.626 Y116.205 E29.69924
G1 X91.530 Y115.694 E29.80925
G1 X91.432 Y115.626 E29.82004
G1 X90.538 Y115.000 E29.91927
G1 X89.683 Y114.145 E30.02928
G1 X88.989 Y113.154 E30.13929
G1 X88.478 Y112.057 E30.24931
G1 X88.165 Y110.888 E30.35932
G1 X88.059 Y109.683 E30.46934
G1 X88.165 Y108.478 E30.57935
G1 X88.478 Y107.309 E30.68936
G1 X88.989 Y106.213 E30.79938
G1 X89.057 Y106.115 E30.81016
G1 X89.683 Y105.222 E30.90939
G1 X90.538 Y104.366 E31.01941
G1 X91.530 Y103.672 E31.12942
G1 X92.626 Y103.161 E31.23943
G1 X93.795 Y102.848 E31.34945
G1 X95.000 Y102.742 E31.45946
G1 X96.205 Y102.848 E31.56948
G1 X97.374 Y103.161 E31.67949
G1 X98.470 Y103.672 E31.78950
G1 X99.462 Y104.366 E31.89952
G1 X100.317 Y105.222 E32.00953
G1 X101.011 Y106.213 E32.11955
G1 X101.522 Y107.309 E32.22956
G1 X101.838 Y108.503 E32.34180
G1 X101.218 Y108.587 F15000.000
G1 X101.314 Y109.683 F540.000 E32.44187
G1 X101.218 Y110.779 E32.54194
G1 X100.933 Y111.842 E32.64202
G1 X100.468 Y112.840 E32.74209
G1 X99.837 Y113.741 E32.84216
G1 X99.058 Y114.520 E32.94223
G1 X98.157 Y115.151 E33.04230
G1 X97.159 Y115.616 E33.14237
G1 X96.096 Y115.901 E33.24245
G1 X95.000 Y115.997 E33.34252
G1 X93.904 Y115.901 E33.44259
G1 X92.841 Y115.616 E33.54266
G1 X91.791 Y115.114 E33.64846
G1 X90.942 Y114.520 E33.74272
G1 X90.163 Y113.741 E33.84279
G1 X89.532 Y112.840 E33.94286
G1 X89.067 Y111.842 E34.04294
G1 X88.782 Y110.779 E34.14301
G1 X88.686 Y109.683 E34.24308
G1 X88.782 Y108.587 E34.34315
G1 X89.067 Y107.524 E34.44322
G1 X89.569 Y106.474 E34.54902
G1 X90.163 Y105.625 E34.64328
G1 X90.942 Y104.847 E34.74335
G1 X91.843 Y104.215 E34.84342
G1 X92.841 Y103.750 E34.94350
G1 X93.904 Y103.465 E35.04357
G1 X95.000 Y103.369 E35.14364
G1 X96.096 Y103.465 E35.24371
G1 X97.159 Y103.750 E35.34378
G1 X98.157 Y104.215 E35.44385
G1 X99.058 Y104.847 E35.54393
G1 X99.837 Y105.625 E35.64400
G1 X100.468 Y106.526 E35.74407
G1 X100.933 Y107.524 E35.84414
G1 X101.193 Y108.496 E35.93569
G1 X101.798 Y108.817 F15000.000
G1 X101.508 Y109.684
G1 X105.168 Y105.577
G1 X87.208 Y100.680
G1 X88.068 Y101.562
G1 X131.932 Y101.562 F1440.000 E39.92419
G1 X132.249 Y101.590 E39.95311
G1 X132.490 Y101.655 E39.97580
G1 X132.716 Y101.760 E39.99849
G1 X132.920 Y101.903 E40.02119
G1 X133.097 Y102.080 E40.04388
G1 X133.240 Y102.284 E40.06658
G1 X133.345 Y102.510 E40.08927
G1 X133.410 Y102.751 E40.11197
G1 X133.438 Y103.068 E40.14089
G1 X133.438 Y116.939 E41.40212
G1 X133.415 Y117.224 E41.42816
G1 X133.363 Y117.443 E41.44861
G1 X133.277 Y117.651 E41.46905
G1 X133.159 Y117.842 E41.48950
G1 X133.013 Y118.013 E41.50995
G1 X132.842 Y118.159 E41.53039
G1 X132.651 Y118.277 E41.55084
G1 X132.443 Y118.363 E41.57128
G1 X132.224 Y118.415 E41.59173
G1 X131.939 Y118.438 E41.61777
G1 X88.061 Y118.438 E45.60751
G1 X87.776 Y118.415 E45.63356
G1 X87.557 Y118.363 E45.65400
G1 X87.349 Y118.277 E45.67445
G1 X87.158 Y118.159 E45.69490
G1 X86.987 Y118.013 E45.71534
G1 X86.841 Y117.842 E45.73579
G1 X86.723 Y117.651 E45.75623
G1 X86.637 Y117.443 E45.77668
G1 X86.585 Y117.224 E45.79712
G1 X86.562 Y116.939 E45.82317
G1 X86.562 Y103.068 E47.08440
G1 X86.590 Y102.751 E47.11332
G1 X86.655 Y102.510 E47.13602
G1 X86.760 Y102.284 E47.15871
G1 X86.903 Y102.080 E47.18140
G1 X87.080 Y101.903 E47.20410
G1 X87.284 Y101.760 E47.22679
G1 X87.510 Y101.655 E47.24949
G1 X87.751 Y101.590 E47.27218
G1 X87.975 Y101.570 E47.29258
G1 X88.041 Y100.937 F15000.000
G1 X131.959 Y100.937 F1440.000 E51.28604
G1 X132.358 Y100.972 E51.32241
G1 X132.704 Y101.065 E51.35505
G1 X133.030 Y101.217 E51.38768
G1 X133.324 Y101.423 E51.42032
G1 X133.577 Y101.676 E51.45296
G1 X133.783 Y101.970 E51.48559
G1 X133.935 Y102.296 E51.51823
G1 X134.028 Y102.642 E51.55086
G1 X134.063 Y103.041 E51.58724
G1 X134.063 Y116.963 E52.85318
G1 X134.034 Y117.322 E52.88593
G1 X133.959 Y117.637 E52.91532
G1 X133.835 Y117.935 E52.94471
